!!!COM: L van Beethoven
!!!OTL: String Quartet
**kern	**dynam	**kern	**dynam	**kern	**dynam	**kern	**dynam	**mxhm
*part4	*part4	*part3	*part3	*part2	*part2	*part1	*part1	*part1
*staff4	*	*staff3	*	*staff2	*	*staff1	*	*
*I"Violoncello	*	*I"Viola	*	*I"Violin II	*	*I"Violin I	*	*
*I'Vc.	*	*I'Vla.	*	*I'Vln. II	*	*I'Vln. I	*	*
*clefF4	*	*clefC3	*	*clefG2	*	*clefG2	*	*
*k[]	*	*k[]	*	*k[]	*	*k[]	*	*
*B--:	*	*B--:	*	*B--:	*	*B--:	*	*
*M3/8	*	*M3/8	*	*M3/8	*	*M3/8	*	*
=1	=1	=1	=1	=1	=1	=1	=1	=1
!	!	!	!	!	!	!LO:TX:a:B:t=Adagio ma non troppo	!	!
*MM60	*	*MM60	*	*MM60	*	*MM60	*	*
!	!	!	!	!	!	!LO:TX:a:t=[quarter]=60	!	!
8r	.	8r	.	8r	.	4.r	.	I[I64
!LO:TX:b:i:t=mezza voce	!	!	!	!	!	!	!	!
!LO:TX:a:i:t=mezza voce	!	!	!	!LO:TX:b:i:t=mezza voce	!	!	!	!
(8BB--'L	.	(8F-'L 8B--	.	(8d-'L	.	.	.	.
8BB--'J)	.	8F-'J) 8B--	.	8d-'J)	.	.	.	.
=2	=2	=2	=2	=2	=2	=2	=2	=2
!	!	!	!	!	!	!LO:TX:a:i:t=cantabile	!	!
[4.BB--	.	(8.F-L	.	(8d-L	.	(4ddd-	.	.
.	.	.	.	8b--)	.	.	.	.
.	.	16FL	.	.	.	.	.	.
.	.	16G-	.	8b--J	.	16eee--LL	.	.
.	.	16F-XJJ)	.	.	.	16ddd-JJ)	.	.
=3	=3	=3	=3	=3	=3	=3	=3	=3
4.BB--]	.	(8E-L	.	(8g-L	.	(8ddd-L	.	V(2)/V
.	.	8E--X	.	8A- 8g--X	.	8ccc-	.	viio7
.	.	8D-J)	.	8B--J) 8f-	.	8ddd-J	.	I]
=4	=4	=4	=4	=4	=4	=4	=4	=4
(16GG-LL	.	(16B--LL	.	(16e--LL	.	8eee--L	.	V65
16AA-JJ	.	16F-JJ	.	16c-JJ	.	.	.	.
8BB--L	.	8F-L	.	8d-L	.	8.ddd-	.	I6
8D-J)	.	8f-J)	.	8B--J)	.	.	.	.
.	.	.	.	.	.	16fff-Jk)	.	.
=5	=5	=5	=5	=5	=5	=5	=5	=5
8F-	.	(8f-	.	8A-	.	4ccc-	.	V
8r	.	4A-)	.	8r	.	.	.	.
8F-	.	.	.	8f-	.	(8ccc-	.	.
=6	=6	=6	=6	=6	=6	=6	=6	=6
4.BB--	.	(8B--L	.	(8f-L	.	8ddd-L	.	I
.	.	8F-	.	8d-	.	8bb--	.	.
.	.	8f-J	.	8b--J)	.	8ddd-J	.	.
=7	=7	=7	=7	=7	=7	=7	=7	=7
(4AA-	<	8fL	<	(4cc-	<	8eee--L	<	#viio65/vi
.	.	8F	.	.	.	8ccc-	.	.
8GG-	[[	8G-J	[[	8b--	[[	8eee--J	[[	IV6
=8	=8	=8	=8	=8	=8	=8	=8	=8
8FFL	>	8A-L	>	8a-L	>	8.ddd-L)	>	vi
16GG-L	.	16B--L	.	16d-L	.	.	.	.
16BB--	.	16d-	.	16g-	.	16bb--L	.	vi6
16C-	.	16c-	.	16f-	.	16aa-	.	V(64)/V
16C-JJ)	]]	16B--JJ)	]]	16e-JJ)	]]	16gg-JJ	]]	V7/V
=9	=9	=9	=9	=9	=9	=9	=9	=9
(8FF-XL	.	(8B--L	.	(8e-L	.	(8gg-L	.	V(9#74)
16F-Jk)	.	16A-Jk)	.	16c-Jk)	.	8ff-J)	.	V\\
16r	.	16r	.	16r	.	.	.	.
8r	.	8r	.	(16a-LL	.	(16cc-LL	.	.
.	.	.	.	16g-JJ	.	16b--JJ	.	.
=10	=10	=10	=10	=10	=10	=10	=10	=10
4.r	.	(8e--L	.	8f-L	.	8a-L	.	V2
.	.	8d-	.	8g-	.	8b--	.	I6
.	.	8c-J)	.	8a-J	.	8cc-J	.	V64
=11	=11	=11	=11	=11	=11	=11	=11	=11
8r	.	[4.B--	.	4b--)	.	4dd-)	.	I
8r	.	.	.	.	.	.	.	.
(16F-LL	.	.	.	(16dd-LL	.	(16ff-LL	.	I64
16G-JJ	.	.	.	16cc-JJ	.	16ee--JJ	.	ii43
=12	=12	=12	=12	=12	=12	=12	=12	=12
8A--XL	.	(8B--L]	.	8b--L	.	8dd-L	.	V2/IV
8G-	.	8b--	.	8cc-	.	8ee--	.	IV6
8F-J	.	8B--J 8a--X	.	8dd-J	.	8ff-J	.	V43/IV
=13	=13	=13	=13	=13	=13	=13	=13	=13
4E--)	<	4B--) 4g-	<	4ee--X)	<	4gg-)	<	IV
(16D-LL	[ sf	(16B--LL	[ sf	(16ff-LL	[ sf	(16aa--XLL	[ sf	V65/IV
16E--JJ)	.	16g-JJ)	.	16ee--JJ)	.	16gg-JJ)	.	IV
=14	=14	=14	=14	=14	=14	=14	=14	=14
4BB-	.	4g-	.	(8ee--L	.	(8gg-L	.	V6(6)/ii
.	.	.	.	8dd-J)	.	8ff-J)	.	V65/ii
(16GG-LL	sf	(16G-LL	sf	(16ee--LL	sf	(16gg-LL	sf	V(6)/ii
16BB-JJ)	.	16g-JJ)	.	16dd-JJ)	.	16ff-JJ)	.	V65/ii
=15	=15	=15	=15	=15	=15	=15	=15	=15
8.C-L	.	8.g-L	.	(8dd-L	.	(8ff-L	.	ii(94)
.	.	.	.	16cc-L	.	16ee--L	.	ii
16C-L	.	16e--L	.	16g-)	.	16gg-)	.	.
(16C-	.	(16e--	.	(16g-	.	(16gg-	.	.
16D-JJ	.	16d-JJ)	.	16b-JJ)	.	16ff-JJ)	.	#viio6/ii
=16	=16	=16	=16	=16	=16	=16	=16	=16
8E--L)	.	8c-L	.	8cc-L	.	(16ff-LL	.	ii6
.	.	.	.	.	.	16ee--	.	.
!LO:TX:b:i:t=cresc.	!	!LO:TX:b:i:t=cresc.	!	!LO:TX:b:i:t=cresc.	!	!	!	!
8.EE--	.	(8.e--	.	(8.c- 8.g-	.	16dd-	.	.
.	.	.	.	.	.	16cc-JJ	.	.
.	.	.	.	.	.	16aa-LL	.	.
16EE--Jk	.	16f-Jk)	.	16c-Jk) 16a-	.	32gg-L	.	V2
.	.	.	.	.	.	32a-JJJ	.	.
=17	=17	=17	=17	=17	=17	=17	=17	=17
16DD-LL	.	(16f-LL	.	(16B--XLL 16b--X	.	16b--LL	.	I6
16GG-J	.	16B--JJ)	.	16e--JJ)	.	32ff-L	.	IV6
.	.	.	.	.	.	32ee--JJJ)	.	.
!	!	!	!	!	!LO:DY:a	!	!	!
8FF-	f >	(8B--L	f >	(8f-L	f f >	(8dd-L	>	V(64)
8FF-J	]]	8f-J)	]]	8a-J)	]]	8cc-J)	]]	V
=18	=18	=18	=18	=18	=18	=18	=18	=18
8BB--	p	(8d-L	p	8f-	p	(8b--L	p	I[I6
[4BB--	.	8B--	.	[4e--	.	8.g-	.	ii
.	.	[8c-J)	.	.	.	.	.	.
.	.	.	.	.	.	16cc-Jk)	.	.
=19	=19	=19	=19	=19	=19	=19	=19	=19
8BB--L]	.	(8c-L]	.	(8e--L]	.	(8b--L	.	ii7
8BB--	.	8F-	.	8A-	.	8a-	.	V
8BB--J	.	16G-L	.	16B--L	.	16g-L	.	vi
.	.	16A-JJ)	.	16c-JJ)	.	16f-JJ)	.	V6
=20	=20	=20	=20	=20	=20	=20	=20	=20
8BB--	.	(16B--LL	.	(16d-LL	.	(16f-LL	.	I
.	.	16D-JJ	.	[16B--JJ)	.	16b--JJ)	.	.
[4BB--	.	[4E--)	.	(16B--LL]	.	(8.g-L	.	ii6
.	.	.	.	16B-J)	.	.	.	.
.	.	.	.	[8c-J	.	.	.	.
.	.	.	.	.	.	32dd-LL	.	.
.	.	.	.	.	.	32cc-JJJ)	.	.
=21	=21	=21	=21	=21	=21	=21	=21	=21
8BB--L]	.	(8E--L]	.	8.c-L]	.	(8b--L	.	ii65
8BB--	.	8F-	.	.	.	8a-	.	V
.	.	.	.	(16A-L	.	.	.	.
8BB--J	.	16G-L	.	16B--X	.	16g-L	.	IV6
.	.	16A-JJ)	.	16c-JJ)	.	16f-JJ)	.	V6
=22	=22	=22	=22	=22	=22	=22	=22	=22
!LO:TX:b:i:t=cresc.	!	!LO:TX:b:i:t=cresc.	!	!LO:TX:b:i:t=cresc.	!	!LO:TX:b:i:t=cresc.	!	!
(8BB--L	.	(4B--	.	(8d-L	.	(8f-L	.	I]
8EE--	.	.	.	8c-)	.	8g-	.	ii6
8FF-J)	.	32A-LLL	.	8c-J	.	8a-J)	.	V
.	.	32G-	.	.	.	.	.	.
.	.	32F-	.	.	.	.	.	.
.	.	32E--JJJ)	.	.	.	.	.	.
=23	=23	=23	=23	=23	=23	=23	=23	=23
.	.	.	.	.	.	8qa-/	sf >	.
!	!	!	!LO:DY:a	!	!	!	!	!
4.FF-	sf > ]]	4.E--	sf sf > ]]	4c-	.	4.cc-	]]	V7
.	.	.	.	(32A-LLL	>	.	.	.
.	.	.	.	32c-	.	.	.	.
.	.	.	.	32f-	.	.	.	.
.	.	.	.	32A-JJJ)	]]	.	.	.
=24	=24	=24	=24	=24	=24	=24	=24	=24
8BB--	p	8D-	p	8B--	p	4b--	p	I\\
[4B--	.	8r	.	8r	.	.	.	.
.	.	[8d--X	.	(8d--X	.	8r	.	i.i
=25	=25	=25	=25	=25	=25	=25	=25	=25
8B--]	.	8d--]	.	8g-)	.	(8ff-L	.	iv%43
[4B--	.	[4d--X	.	[4f-	.	8dd--X)	.	i
.	.	.	.	.	.	(16ff-'L	.	.
.	.	.	.	.	.	16dd--'JJ)	.	.
=26	=26	=26	=26	=26	=26	=26	=26	=26
8B--]	.	8d--]	.	8f-]	.	(8cc-L	.	i(9)
[4B--	.	[4d--X	.	[4f-	.	8b--J)	.	i\\
.	.	.	.	.	.	(16b--'LL	.	.
.	.	.	.	.	.	16dd--X'JJ)	.	.
=27	=27	=27	=27	=27	=27	=27	=27	=27
8B--]	.	8d--]	.	8f-]	.	8ff-L	.	.
[4B--	.	[4d--X	.	[4f-	.	8bb--J	.	.
.	.	.	.	.	.	(16ddd--X'LL	.	.
.	.	.	.	.	.	16bb--'JJ)	.	.
=28	=28	=28	=28	=28	=28	=28	=28	=28
.	.	.	.	.	.	32qqaa-/LLL	.	.
.	.	.	.	.	.	32qqbb--/	.	.
.	.	.	.	.	.	32qqccc-/JJJ	.	.
(8B--L]	.	(8d--L]	.	(8f-L]	.	(8bb--L	.	.
8F-)	.	8c-)	.	8a-)	.	8aa-J)	.	V
8F-J	.	8c-J	.	[8a--XJ	.	[8ccc-	.	.bIII.iii
=29	=29	=29	=29	=29	=29	=29	=29	=29
!LO:TX:b:i:t=cresc.	!	!LO:TX:b:i:t=cresc.	!	!LO:TX:b:i:t=cresc.	!	!LO:TX:b:i:t=cresc.	!	!
8G--X	.	8e--X	.	8a--]	.	4ccc-]	.	V2
4G--	.	4A--X	.	4e--	.	.	.	.
.	.	.	.	.	.	8aa--X	.	.
=30	=30	=30	=30	=30	=30	=30	=30	=30
8F-L	.	8A--X	.	8d--X	.	8ddd--XL	.	I6
!	!	!	!LO:DY:a	!	!	!	!	!
(16FF-L	f	(16A--LL	f f	(16d--LL	.	(16dd--XL	f	.
16FF-)	.	16A--JJ)	.	16d--JJ)	.	16dd--JJ)	.	.
(16FF-	.	(16A--LL	.	(16d--LL	.	(16cc--LL	.	V65/iv
16FF-JJ)	.	16A--JJ)	.	16d--JJ)	.	16cc--JJ)	.	.
=31	=31	=31	=31	=31	=31	=31	=31	=31
4GG--X	.	4G--X	.	4d--X	.	4a########################################################################################################################################################################################################################################################################################################################################################################################################################################################################################################################################################################################################################################################################################################################################################################################################################################################################################################################################################################################################################################	.	iv
[8AA--X	.	[8E-	.	[8d--	.	[8a--X	.	V(b64)
=32	=32	=32	=32	=32	=32	=32	=32	=32
8AA--]	.	8E-]	.	8d--]	.	8a--]	.	.
!	!LO:DY:a	!	!LO:DY:a	!	!	!	!	!
[4AA-	sf sf	[4E-	sf	[4d--X	.	[4g-	sf	.Ger6
=33	=33	=33	=33	=33	=33	=33	=33	=33
8AA-]	.	8E-]	.	8d--]	.	8g-]	.	.
!LO:TX:b:i:t=dim.	!	!LO:TX:b:i:t=dim.	!	!LO:TX:b:i:t=dim.	!	!LO:TX:b:i:t=dim.	!	!
[4BB--	.	[4E-	.	[4d--X	.	[4g-	.	#viio65/V
=34	=34	=34	=34	=34	=34	=34	=34	=34
8BB--L]	p	(8E-L]	p	8d--L]	p	(8g-L]	p	.
8AA--X	.	8F-	.	(8d--X	.	8a--X	.	V(64)
8AA--J	.	8G--XJ)	.	8c-J)	.	16b--XL	.	V7
.	.	.	.	.	.	16a--JJ)	.	.
=35	=35	=35	=35	=35	=35	=35	=35	=35
8D--X	.	8F-	.	8d--X	.	4d--X	.	I\\
8r	.	4f-	.	8r	.	.	.	.
8r	.	.	.	8a--X	.	(8dd--X	.	.
=36	=36	=36	=36	=36	=36	=36	=36	=36
8r	.	4g--X	.	4a-	.	[8cc-XL)	.	I[viio7
8d--XL	.	.	.	.	.	(16cc-L]	.	.
.	.	.	.	.	.	16gg--X)	.	.
8d--J	.	8g--	.	8a--X	.	16ee--'	.	.
.	.	.	.	.	.	16cc-'JJ	.	.
=37	=37	=37	=37	=37	=37	=37	=37	=37
4d--X	.	8f-	.	8a--X	.	(8ee--XL	.	I(9)
.	.	(16F-LL	.	8r	.	8dd--XJ)	.	I
.	.	[16A--XJJ)	.	.	.	.	.	.
8r	.	8A--]	.	(16d--XLL	.	(8d--X	.	.
.	.	.	.	16f-JJ)	.	.	.	.
=38	=38	=38	=38	=38	=38	=38	=38	=38
8r	.	8A-	.	4.g--X	.	[8c-L)	.	viio7
8D--XL	.	[4A--X	.	.	.	(16c-L]	.	.
.	.	.	.	.	.	16g--X)	.	.
8D--J	.	.	.	.	.	(16e--X'	.	.
.	.	.	.	.	.	16c-'JJ)	.	.
=39	=39	=39	=39	=39	=39	=39	=39	=39
4.D--X	.	8A--]	.	8f-	.	8d--XL	.	I]
.	.	[4A--X	.	8r	.	8.dd--X	.	.
.	.	.	.	[8f-	.	.	.	.
.	.	.	.	.	.	16cc--Jk	.	V/IV
=40	=40	=40	=40	=40	=40	=40	=40	=40
4.D-	.	8A--]	.	4f-]	.	(4cc--	.	#viio7/ii
.	.	[4A--X	.	.	.	.	.	.
.	.	.	.	[8f-	.	(16ccLL)	.	.
.	.	.	.	.	.	16b--JJ)	.	.
=41	=41	=41	=41	=41	=41	=41	=41	=41
4.D-	.	8A--]	.	4f-]	.	4b--	.	V65/ii
.	.	4F-	.	.	.	.	.	.
.	.	.	.	[8B--	.	8b--	.	.
=42	=42	=42	=42	=42	=42	=42	=42	=42
8E--	.	8G--X	.	8B--]	.	(8.b--L	.	ii
[4E--	.	[4G--	.	[4B--	.	.	.	.
.	.	.	.	.	.	16g--XL)	.	.
.	.	.	.	.	.	(16b--'	.	.
.	.	.	.	.	.	16g--'JJ)	.	.
=43	=43	=43	=43	=43	=43	=43	=43	=43
8E--]	.	8G--]	.	8B--]	.	(8f-L	.	.
[4E--	.	[4B--	.	[4g--X	.	8e--XJ)	.	.
.	.	.	.	.	.	(16e--'LL	.	.
.	.	.	.	.	.	16g--XJJ)	.	.
=44	=44	=44	=44	=44	=44	=44	=44	=44
8E--L]	.	8B--]	.	8g--]	.	(8b--L	.	.
8AA-	.	[4c-	.	[4g--X	.	8ee--)	.	#viio7/vi
[8A-J	.	.	.	.	.	(16gg--X'L	.	.
.	.	.	.	.	.	16ee--'JJ)	.	.
=45	=45	=45	=45	=45	=45	=45	=45	=45
8A-]	.	8c-]	.	8g--]	.	(8dd--XL	.	#viio7(4)/vi
!LO:TX:b:i:t=cresc.	!	!LO:TX:b:i:t=cresc.	!	!LO:TX:b:i:t=cresc.	!	!LO:TX:b:i:t=cresc.	!	!
[4A-	.	[4c-	.	[4e--	.	8cc-X)	.	#viio7/vi
.	.	.	.	.	.	(16gg--X'L	.	.
.	.	.	.	.	.	16ee--'JJ)	.	.
=46	=46	=46	=46	=46	=46	=46	=46	=46
8A-L]	.	8c-L]	.	8e--L]	.	(8dd--XL	.	#viio7(4)/vi
8A-	.	8F- 8c-	.	8e--	.	8cc-)	.	V7/vi
[8AA-J	.	[8F-J [8c-	.	[8e--J	.	(16ee--'L	.	V65/vi
.	.	.	.	.	.	16cc-'JJ)	.	.
=47	=47	=47	=47	=47	=47	=47	=47	=47
(8AA-L]	.	8F-] 8c-]	.	8e--]	.	(8ee--L	.	.
8BB--	.	[4F- [4B--	.	[4d--X	.	8dd--X)	.	i.i
[8FF-J)	.	.	.	.	.	(16ff-'L	.	.
.	.	.	.	.	.	16dd--'JJ)	.	.
=48	=48	=48	=48	=48	=48	=48	=48	=48
(8FF-L]	.	8F-L] 8B--]	.	8d--L]	.	(8cc-	.	i64(9)
8GG-	.	8B--	.	8e-	.	8b--)	.	#viio/V
.	.	.	.	.	.	32qqcc-/LLL	.	.Ger6
.	.	.	.	.	.	32qqb--/	.	.
.	.	.	.	.	.	32qqa-/	.	.
.	.	.	.	.	.	32qqb--/JJJ	.	.
8GG--XJ)	.	8B--J	.	8e-J	.	(16dd--X'LL	.	.
.	.	.	.	.	.	16b--'JJ)	.	.
=49	=49	=49	=49	=49	=49	=49	=49	=49
8FF-	p	8c-	p	8f-	p	[8a-	p	V\\
8r	.	8r	.	8r	.	4a-] 4cc-	.	#viio7
!LO:TX:b:i:t=espressivo	!	!	!	!	!	!	!	!
(16g--X'LL	.	8r	.	8r	.	.	.	.
16e--X'JJ)	.	.	.	.	.	.	.	.
=50	=50	=50	=50	=50	=50	=50	=50	=50
8d--XL	.	8r	.	8r	.	4.r	.	.
8c-J	.	8r	.	8r	.	.	.	.
!LO:TX:a:i:t=espressivo	!	!	!	!LO:TX:b:i:t=espressivo	!	!	!	!
8r	.	(16e--'LL	.	(16gg--X'LL	.	.	.	.
.	.	16c-'JJ)	.	16ee--X'JJ)	.	.	.	.
=51	=51	=51	=51	=51	=51	=51	=51	=51
8r	.	(8B--L	.	(8dd--XL	.	8r	.	.
8r	.	8A-J)	.	8cc-J)	.	8r	.	.
(16g-'LL	.	8r	.	8r	.	[8a- [8cc-	.	V2
16e--'JJ)	.	.	.	.	.	.	.	.
=52	=52	=52	=52	=52	=52	=52	=52	=52
(8d-L	.	8r	.	8r	.	16a-LL] 16cc-]	.	.
.	.	.	.	.	.	(16dd-'	.	.
8c-J)	.	8r	.	8r	.	16ee--'	.	.
.	.	.	.	.	.	16ff-'J)	.	.
8r	.	(16e--'LL	.	(16gg-'LL	.	[8gg-J	.	.
.	.	16c-'JJ)	.	16ee--'JJ)	.	.	.	.
=53	=53	=53	=53	=53	=53	=53	=53	=53
8r	.	(8B--L	.	(8dd-L	.	16gg-LL]	.	I.vi6
.	.	.	.	.	.	16gg-	.	.
8r	.	8A-J)	.	8cc-J)	.	(16gg-	.	V6(2)
.	.	.	.	.	.	16ff-JJ)	.	V6
8F-	sf	8A-	sf	8c- 8f-	sf	16ff-'LL	sf	V
.	.	.	.	.	.	16cc-'JJ	.	.
=54	=54	=54	=54	=54	=54	=54	=54	=54
4BB--	.	4F- 4B--	.	4d- 4f-	.	4dd-	.	I
8G-	sf	8B-	sf	8d- 8g-	sf	16gg-'LL	sf	V/ii
.	.	.	.	.	.	16dd-'JJ	.	.
=55	=55	=55	=55	=55	=55	=55	=55	=55
4C-	.	4G- 4c-	.	4e-- 4g-	.	4ee--	.	ii
8G-	sf	8B-	sf	8d- 8g-	sf	16gg-'LL	sf	V/ii
.	.	.	.	.	.	16dd-'JJ	.	.
=56	=56	=56	=56	=56	=56	=56	=56	=56
!LO:TX:b:i:t=dim.	!	!LO:TX:b:i:t=dim.	!	!LO:TX:b:i:t=dim.	!	!LO:TX:b:i:t=dim.	!	!
4C-	.	4G- 4c-	.	4e-- 4g-	.	4ee--	.	ii
(8C-	.	(8c-	.	(8g-	.	(8ee--	.	.
=57	=57	=57	=57	=57	=57	=57	=57	=57
4D-)	.	4A-)	.	4f)	.	4dd-)	.	V/vi
8D-	.	8A-	.	8f	.	8dd-	.	.
=58	=58	=58	=58	=58	=58	=58	=58	=58
8r	.	8r	.	8r	.	8r	.	.
!LO:TX:b:i:t=espress.	!	!LO:TX:b:i:t=espress.	!	!LO:TX:b:i:t=espress.	!	!LO:TX:b:i:t=espress.	!	!
8E--	.	8G-	.	8c- 8g-	.	8cc-	.	ii6
8r	.	8r	.	8r	.	8r	.	.
=59	=59	=59	=59	=59	=59	=59	=59	=59
8r	.	8r	.	8r	.	8r	.	.
8E-	.	8G- 8B--X	.	8c- 8g-	.	8cc-	.	V65/V
8r	.	8r	.	8r	.	8r	.	.
=60	=60	=60	=60	=60	=60	=60	=60	=60
8r	.	8r	.	8r	.	8r	.	.
8E-	.	8G- 8B--	.	8c- 8g-	.	8cc-	.	.
8r	.	8r	.	8r	.	8r	.	.
=61	=61	=61	=61	=61	=61	=61	=61	=61
8r	.	8r	.	8r	.	8r	.	.
8F-	.	8B--	.	8c- 8f-X	.	[8cc-L	.	V7(4)
8r	.	8r	.	8r	.	(32cc-LL]	.	.
.	.	.	.	.	.	32dd-	.	.
.	.	.	.	.	.	32ee--	.	.
.	.	.	.	.	.	32cc-JJJ	.	.
=62	=62	=62	=62	=62	=62	=62	=62	=62
8r	.	8r	.	8r	.	32a-LLL	.	V7
.	.	.	.	.	.	32b--	.	.
.	.	.	.	.	.	32cc-	.	.
.	.	.	.	.	.	32a-JJJ	.	.
8f-	pp	16cc-	pp	16ee--	pp	32g-LLL	.	.
.	.	.	.	.	.	32f-	.	.
.	.	16r	.	16r	.	32a-	.	.
.	.	.	.	.	.	32f-JJJ	.	.
8r	.	8r	.	8r	.	32cc-LLL	.	.
.	.	.	.	.	.	32a-	.	.
.	.	.	.	.	.	32ee--	.	.
.	.	.	.	.	.	32cc-JJJ)	.	.
=63	=63	=63	=63	=63	=63	=63	=63	=63
4.r	.	4.r	.	4.r	.	(16gg-'LL	.	@none
.	.	.	.	.	.	16ff-'JJ)	.	.
.	.	.	.	.	.	(8.ee-L	>	.
.	.	.	.	.	.	16ee--XJk)	]]	.
=64	=64	=64	=64	=64	=64	=64	=64	=64
!	!	!	!	!	!	!LO:TX:b:i:t=cantabile	!	!
(24BB--LL	p	8r	.	8r	.	(4dd-	p	I[I
24D-	.	.	.	.	.	.	.	.
24F-JJ)	.	.	.	.	.	.	.	.
!	!LO:DY:a	!	!	!	!	!	!	!
(8B--L	p	(24B--LL	.	8r	.	.	.	.
.	.	24d-	.	.	.	.	.	.
.	.	24fJJ	.	.	.	.	.	.
8BB--J)	.	24g-LL	.	(24e--LL	p	24ff-LL	.	IV(9)
.	.	24b--	.	24g-	.	24ee--	.	IV6
.	.	24f-XJJ)	.	24b--JJ)	.	24dd-JJ)	.	I64
=65	=65	=65	=65	=65	=65	=65	=65	=65
(24BB--LL	.	(16e-LL	.	(8g-L	.	(8dd-L	.	#vii%7/V
24E-	.	.	.	.	.	.	.	.
.	.	16E-JJ)	.	.	.	.	.	.
24G-JJ)	.	.	.	.	.	.	.	.
(8B--L	.	(24E--XLL	.	16a-L	.	8cc-	.	#viio2/vi
.	.	24F	.	.	.	.	.	.
.	.	.	.	16e--JJ	.	.	.	.
.	.	24A-JJ	.	.	.	.	.	.
8BB--J)	.	24B--LL	.	24d-LL	.	8dd-J)	.	I]
.	.	24d-	.	24f-	.	.	.	.
.	.	24f-XJJ)	.	24b--JJ)	.	.	.	.
=66	=66	=66	=66	=66	=66	=66	=66	=66
(24GG-LL	.	(24B--LL	.	(24e--LL	.	(8ee--L	.	IV6
24AA-	.	24F	.	24c-	.	.	.	.
24F-JJ)	.	24F-XJJ)	.	24c-JJ)	.	.	.	.
(8BB--L	.	(24F-LL	.	8B--L	.	8dd-J)	.	I
.	.	24B--	.	.	.	.	.	.
.	.	24d-JJ)	.	.	.	.	.	.
8D-J)	.	(16B--LL	.	(24f-L	.	(64ff-LLLL	.	I6
.	.	.	.	.	.	64aa-	.	.
.	.	.	.	.	.	64bb--	.	.
.	.	.	.	24b--	.	.	.	.
.	.	.	.	.	.	64aa-	.	.
.	.	16F-JJ)	.	.	.	64gg-	.	.
.	.	.	.	.	.	64ff-	.	.
.	.	.	.	24dd-JJ)	.	.	.	.
.	.	.	.	.	.	64ee--	.	.
.	.	.	.	.	.	64dd-JJJJ)	.	.
=67	=67	=67	=67	=67	=67	=67	=67	=67
(24FF-LL	.	8A-	.	8a-	.	4cc-	.	V7
24C-	.	.	.	.	.	.	.	.
24E-JJ)	.	.	.	.	.	.	.	.
4F-	.	(24A-LL	.	8r	.	.	.	.
.	.	24c-	.	.	.	.	.	.
.	.	24e-JJ)	.	.	.	.	.	.
.	.	(16f-LL	.	(24e--LL	.	(8cc-	.	.
.	.	.	.	24a-	.	.	.	.
.	.	16A-JJ)	.	.	.	.	.	.
.	.	.	.	24cc-JJ)	.	.	.	.
=68	=68	=68	=68	=68	=68	=68	=68	=68
!LO:TX:b:i:t=cresc.	!	!LO:TX:b:i:t=cresc.	!	!LO:TX:b:i:t=cresc.	!	!LO:TX:b:i:t=cresc.	!	!
(24BB--LL	.	8B--	.	(16dd-LL	.	8dd-L	.	I
24D-	.	.	.	.	.	.	.	.
.	.	.	.	16d-JJ)	.	.	.	.
[24F-JJ)	.	.	.	.	.	.	.	.
8F-L]	.	(24D-LL	.	8r	.	[8b--J)	.	.
.	.	24F-	.	.	.	.	.	.
.	.	24A-JJ)	.	.	.	.	.	.
8BB--J	.	8B--	.	(24d-LL	.	32b--LLL]	.	.
.	.	.	.	.	.	64qqcc-/LLLL	.	.
.	.	.	.	.	.	64qqb--/	.	.
.	.	.	.	.	.	64qqa-/JJJJ	.	.
.	.	.	.	.	.	(32b--	.	.
.	.	.	.	24f-	.	.	.	.
.	.	.	.	.	.	32cc-	.	.
.	.	.	.	24b--JJ)	.	.	.	.
.	.	.	.	.	.	32dd-JJJ)	.	.
=69	=69	=69	=69	=69	=69	=69	=69	=69
(24AA-LL	.	(8c-	.	(16cc-LL	.	(8ee--L	.	#viio65/vi
24E--X	.	.	.	.	.	.	.	.
.	.	.	.	16c-JJ)	.	.	.	.
[24FJJ)	.	.	.	.	.	.	.	.
8FL]	.	24E--LL	.	8r	.	[8cc-J)	.	.
.	.	24F	.	.	.	.	.	.
.	.	24A-J	.	.	.	.	.	.
8GG-J	.	8B--J)	.	(24e--LL	.	32cc-LLL]	.	VI6/vi-IV6
.	.	.	.	.	.	64qqdd-/LLLL	.	.
.	.	.	.	.	.	64qqcc-/	.	.
.	.	.	.	.	.	64qqb-/JJJJ	.	.
.	.	.	.	.	.	(32cc-	.	.
.	.	.	.	24g-	.	.	.	.
.	.	.	.	.	.	32dd-	.	.
.	.	.	.	24b--JJ)	.	.	.	.
.	.	.	.	.	.	32ee--JJJ)	.	.
=70	=70	=70	=70	=70	=70	=70	=70	=70
(24FFLL	>	(24A-LL	>	(24a-LL	>	[8dd-	>	V65/vi
24AA-)	.	24c-)	.	24d-)	.	.	.	.
24D-JJ	.	24c-JJ	.	24d-JJ	.	.	.	.
(24GG-LL	.	(24B--LL	.	(24d-LL	.	(24dd-LL]	.	vi-ii/V
24AA-	.	24c-	.	24f	.	24cc-	.	.
24BB--JJ)	.	24d-JJ)	.	24g-JJ)	.	24b--XJJ)	.	.
24C-LL	.	(24c-LL	.	(24f-XLL	.	(24a-LL	.	V(64)/V
24C-	.	24G-	.	24e-)	.	24b--	.	V7/V
24C-JJ	]]	24B--JJ)	]]	24e-JJ	]]	24g-JJ)	]]	.
=71	=71	=71	=71	=71	=71	=71	=71	=71
(24FF-XLL	.	(24B--LL	.	(24e-LL	.	(8g-L	.	V(94#7)
24C-	.	24c-	.	24B--	.	.	.	.
24E-JJ)	.	24B--JJ	.	24c-JJ)	.	.	.	.
4F-X	.	24A-LL	.	[8c-	.	8f-J)	.	V\\
.	.	24c-	.	.	.	.	.	.
.	.	24e-JJ	.	.	.	.	.	.
.	.	24f-LL	.	24c-LL]	.	8r	.	.
.	.	24A-	.	(24c-	.	.	.	.
.	.	24G-JJ)	.	24B--JJ	.	.	.	.
=72	=72	=72	=72	=72	=72	=72	=72	=72
(24E--XLL	p	8F-X	p	8A-L	.	8r	.	V2
24A-	.	.	.	.	.	.	.	.
24c-JJ)	.	.	.	.	.	.	.	.
(8D-L	.	(24F-LL	.	8B--J)	.	[4f-	p	V43
.	.	24B--	.	.	.	.	.	.
.	.	24d-JJ)	.	.	.	.	.	.
8C-J)	.	8e--X	.	(24c-LL	.	.	.	.
.	.	.	.	24f-	.	.	.	.
.	.	.	.	24a-JJ)	.	.	.	.
=73	=73	=73	=73	=73	=73	=73	=73	=73
[4BB--	.	[4d-	.	[4b--	.	(24f-LL]	.	I
.	.	.	.	.	.	24B--	.	.
.	.	.	.	.	.	24c-JJ	.	.
.	.	.	.	.	.	24d-LL	.	.
.	.	.	.	.	.	24f-	.	.
.	.	.	.	.	.	24b--JJ	.	.
(24BB--LL]	.	24d-LL]	.	24b--LL]	.	24dd-LL	.	.
24FF-	.	(24d-	.	(24f-	.	24ff-	.	.
24GG-JJ)	.	24c-JJ)	.	24e--XJJ)	.	24ee--JJ)	.	vi64
=74	=74	=74	=74	=74	=74	=74	=74	=74
(24AA--XLL	.	(8B--L	.	(8d-L	.	(8dd-L	.	V2/IV
24D-	.	.	.	.	.	.	.	.
24F-JJ)	.	.	.	.	.	.	.	.
(8GG-L	.	24E--L	.	8B--J	.	8ee--	.	IV6
.	.	24G-	.	.	.	.	.	.
.	.	24B--JJ	.	.	.	.	.	.
8FF-J)	.	8A--X)	.	24d-LL	.	8ff-J)	.	V64/IV
.	.	.	.	24f-	.	.	.	.
.	.	.	.	24b--JJ)	.	.	.	.
=75	=75	=75	=75	=75	=75	=75	=75	=75
(24EE--LL	.	(8G-L	.	(16b--KL	.	[4gg-	<	IV
24GG-	.	.	.	.	.	.	.	.
.	.	.	.	[8.ee--J)	.	.	.	.
24BB--JJ	.	.	.	.	.	.	.	.
24D-LL	.	8B--J)	.	.	.	.	.	.
24E--	.	.	.	.	.	.	.	.
24G-JJ	.	.	.	.	.	.	.	.
24B--LL	.	(24g-LL	.	(24ee--LL]	.	(24gg-LL]	.	.
24d-	sf	24f-	sf	24ff-	sf	24aa--X	sf	.
24e--JJ)	.	24g-JJ)	.	24ee--JJ)	.	24gg-JJ)	[[	.
=76	=76	=76	=76	=76	=76	=76	=76	=76
(24GG-LL	.	(16g-KL	.	(16ee--KL	.	(16gg-KL	.	V7/ii
24BB-	.	.	.	.	.	.	.	.
.	.	[8.B-J)	.	[8.dd-J)	.	[8.ff-J)	.	.
24D-JJ	.	.	.	.	.	.	.	.
24FLL	.	.	.	.	.	.	.	.
24G-	.	.	.	.	.	.	.	.
24B-JJ	.	.	.	.	.	.	.	.
24d-LL)	.	24B-LL]	.	(24dd-LL]	.	(24ff-LL]	.	.
(24GG-	sf	24g-	sf	24ee--	sf	24gg-	sf	.
24BB-JJ)	.	24g-JJ	.	24dd-JJ)	.	24ff-JJ)	.	.
=77	=77	=77	=77	=77	=77	=77	=77	=77
(24C-LL	.	(16g-KL	.	(16dd-KL	.	(16ff-KL	.	ii
24E--	.	.	.	.	.	.	.	.
.	.	[8.G-J)	.	[8.cc-J)	.	[8.ee--J)	.	.
24G-JJ	.	.	.	.	.	.	.	.
24B-LL	.	.	.	.	.	.	.	.
24c-	.	.	.	.	.	.	.	.
24e--JJ	.	.	.	.	.	.	.	.
24g-LL)	.	(24G-LL]	.	(24cc-LL]	.	(24ee--LL]	.	.
(24C-	.	24e--	.	24g-	.	24gg-	.	.
24D-JJ)	.	24B-JJ)	.	24g-JJ)	.	24ff-JJ)	.	.
=78	=78	=78	=78	=78	=78	=78	=78	=78
!LO:TX:b:i:t=cresc.	!	!LO:TX:b:i:t=cresc.	!	!LO:TX:b:i:t=cresc.	!	!LO:TX:b:i:t=cresc.	!	!
(24EE--LL	.	[4c-	.	[4g-	.	(16ff-LL	.	ii6
24GG-	.	.	.	.	.	.	.	.
.	.	.	.	.	.	16ee--	.	.
24C-JJ	.	.	.	.	.	.	.	.
24E--LL	.	.	.	.	.	16dd-	.	.
24G-	.	.	.	.	.	.	.	.
.	.	.	.	.	.	16cc-TJJ	.	.
24c-JJ	.	.	.	.	.	.	.	.
.	.	.	.	.	.	16qqb-/LL	.	V2
.	.	.	.	.	.	16qqcc-/JJ	.	.
24e--LL)	.	24c-LL]	.	24g-LL]	.	24aa-LL	.	.
(24E--	.	(24c-	.	(24g-	.	24gg-	.	.
24EE--JJ)	.	24f-JJ)	.	24c-JJ)	.	24a-JJ)	.	.
=79	=79	=79	=79	=79	=79	=79	=79	=79
(24DD-LL	.	(24f-LL	.	(24B--LL	.	(32cc-LLL	.	I6
.	.	.	.	.	.	32b--X	.	.
24GG-	.	24B--X	.	24e--	.	.	.	.
.	.	.	.	.	.	32ff-	.	IV6
24EE--JJ)	.	24g-JJ)	.	24b--JJ)	.	.	.	.
.	.	.	.	.	.	32ee--JJJ)	.	IV
(24FF-LL	f	(24f-LL	f	(24b--LL	f	8dd-L	f	V(64)
24F-	.	24d-	.	24f-	.	.	.	.
24FF-JJ)	.	24B--JJ)	.	24d-JJ)	.	.	.	.
24FF-LL	>	24A-LL	>	24e--LL	>	(24cc-L	>	V7
24FF-	.	24A-	.	24e--	.	24gg-	.	.
24FF-JJ	]]	24A-JJ	]]	24e--JJ	]]	24ff-JJ)	]]	.
=80	=80	=80	=80	=80	=80	=80	=80	=80
(24BB--LL	p	16B--	p	8d-	p	(8b--L	p	I[I
24C-	.	.	.	.	.	.	.	.
.	.	16r	.	.	.	.	.	.
24D-JJ)	.	.	.	.	.	.	.	.
4BB-- 4E--	.	(24G-LL	.	8r	.	8.g-	.	IV
.	.	24A-	.	.	.	.	.	.
.	.	24B-JJ)	.	.	.	.	.	.
.	.	8c-	.	(24c-LL	.	.	.	.
.	.	.	.	24d-	.	.	.	.
.	.	.	.	.	.	16cc-Jk	.	.
.	.	.	.	24e--JJ)	.	.	.	.
=81	=81	=81	=81	=81	=81	=81	=81	=81
24BB--LL	.	24E--LL	.	4.c- 4.f-	.	8b--L	.	V2(4)
24BB--	.	24E--	.	.	.	.	.	.
24BB--JJ	.	24E--JJ	.	.	.	.	.	.
24BB--LL	.	24E--LL	.	.	.	8a-	.	V2
24BB--	.	24E--	.	.	.	.	.	.
24BB--JJ	.	24E--JJ	.	.	.	.	.	.
24BB--LL	.	24E--LL	.	.	.	16g-L	.	.
24BB--	.	24E--	.	.	.	.	.	.
.	.	.	.	.	.	16f-JJ)	.	.
24BB--JJ	.	24E--JJ	.	.	.	.	.	.
=82	=82	=82	=82	=82	=82	=82	=82	=82
(24BB--LL	.	(24D-LL	.	8d- 8f-	.	(16f-LL	.	I6
24C-	.	24E--	.	.	.	.	.	.
.	.	.	.	.	.	16b--JJ)	.	.
24D-JJ)	.	24F-JJ	.	.	.	.	.	.
4BB-- 4E--	.	24G-LL	.	8r	.	[8g-L	.	IV
.	.	24A-	.	.	.	.	.	.
.	.	24B-JJ	.	.	.	.	.	.
.	.	8c-)	.	(24c-LL	.	(24g-L]	.	.
.	.	.	.	24d-	.	24dd-	.	.
.	.	.	.	24e--JJ)	.	24cc-JJ)	.	.
=83	=83	=83	=83	=83	=83	=83	=83	=83
24BB--LL	.	24E--LL	.	[4c- [4f-	.	(8b--L	.	V2(4)
24BB--	.	24E--	.	.	.	.	.	.
24BB--JJ	.	24E--JJ	.	.	.	.	.	.
24BB--LL	.	24E--LL	.	.	.	[8a-J)	.	V2
24BB--	.	24E--	.	.	.	.	.	.
24BB--JJ	.	24E--JJ	.	.	.	.	.	.
24BB--LL	.	24E--LL	.	(24c-LL] 24f-]	.	(24a-LL]	.	.
24BB--	.	24E--	.	24g-	.	24g-	.	.
24BB--JJ	.	24E--JJ	.	24a-JJ)	.	24f-JJ)	.	.
=84	=84	=84	=84	=84	=84	=84	=84	=84
!LO:TX:b:i:t=cresc.	!	!LO:TX:a:i:t=cresc.	!	!LO:TX:a:i:t=cresc.	!	!LO:TX:a:i:t=cresc.	!	!
24BB--LL	.	24D-LL	.	24b--LL	.	(8f-L	.	I6]
24BB--	.	24B--X	.	24dd-	.	.	.	.
24BB--JJ	.	24B--JJ	.	24dd-JJ	.	.	.	.
24EE--LL	.	24B--LL	.	24dd-LL	.	8g-	.	ii65
24EE--	.	24B--	.	24cc-	.	.	.	.
24EE--JJ	.	24B--JJ	.	24cc-JJ	.	.	.	.
24FF-LL	.	24A-LL	.	24cc-LL	.	8a-J)	.	V7
24FF-	.	24c-	.	24ee--	.	.	.	.
24FF-JJ	.	24c-JJ	.	24ee--JJ	.	.	.	.
=85	=85	=85	=85	=85	=85	=85	=85	=85
.	.	.	.	.	.	8qa-/	sf >	.
(24FF-LL	sf >	8c-	sf >	(4ee--	sf >	4.cc-	]]	.
24C-	.	.	.	.	.	.	.	.
[24F-JJ)	.	.	.	.	.	.	.	.
8F-L]	.	24A-LL	.	.	.	.	.	.
.	.	24c-	.	.	.	.	.	.
.	.	[24e--JJ	.	.	.	.	.	.
8FF-J	]]	8e--]	]]	24a-LL	.	.	.	.
.	.	.	.	24cc-	.	.	.	.
.	.	.	.	24ff-JJ)	]]	.	.	.
=86	=86	=86	=86	=86	=86	=86	=86	=86
8BB--L	p	8d-L	p	8b--	p	8b--	p	I
(8F-J	sf >	(8A--XJ	sf >	8r	.	16r	.	V7/IV
.	.	.	.	.	.	8b--L	>	.
16E--LL	.	16G-LL	.	8r	.	.	.	.
16BB--JJ)	]]	16F-JJ)	]]	.	.	16b--Jk	]]	.
=87	=87	=87	=87	=87	=87	=87	=87	=87
4.EE--	.	(32G-LLL	.	4.r	.	(8.b--L	.	IV.I
.	.	32B--	.	.	.	.	.	.
.	.	32c-	.	.	.	.	.	.
.	.	32B--JJJ	.	.	.	.	.	.
.	.	32G-LLL	.	.	.	.	.	.
.	.	32B--	.	.	.	.	.	.
.	.	32G-	.	.	.	16ee--XL	.	.
.	.	32B--JJJ	.	.	.	.	.	.
.	.	32G-LLL	.	.	.	16ff-	.	.
.	.	32B--	.	.	.	.	.	.
.	.	32G-	.	.	.	16gg-JJ)	.	.
.	.	32B--JJJ)	.	.	.	.	.	.
=88	=88	=88	=88	=88	=88	=88	=88	=88
4DD-	.	(32F-LLL	.	4.r	.	(8gg-L	.	V65
.	.	32B--	.	.	.	.	.	.
.	.	32c-	.	.	.	.	.	.
.	.	32B--JJJ	.	.	.	.	.	.
.	.	32F-LLL	.	.	.	8aa--XJ	.	.
.	.	32B--	.	.	.	.	.	.
.	.	32F-	.	.	.	.	.	.
.	.	32B--JJJ	.	.	.	.	.	.
(16DD-LL	.	32F-LLL	.	.	.	16ff-LL	.	.
.	.	32B--	.	.	.	.	.	.
16EE--JJ)	.	32G-	.	.	.	16ee--XJJ)	.	.
.	.	32B--JJJ)	.	.	.	.	.	.
=89	=89	=89	=89	=89	=89	=89	=89	=89
4FF-	.	(32A--XLLL	.	4.r	.	8.dd-L	.	V43
.	.	32B--	.	.	.	.	.	.
.	.	32c-	.	.	.	.	.	.
.	.	32B--JJJ	.	.	.	.	.	.
.	.	32A--LLL	.	.	.	.	.	.
.	.	32B--	.	.	.	.	.	.
.	.	32A--	.	.	.	(16dd-L	.	.
.	.	32B--JJJ	.	.	.	.	.	.
(16EE--LL	.	32G-LLL	.	.	.	16ee--X	.	.
.	.	32B--	.	.	.	.	.	.
16DD-JJ)	.	32F-	.	.	.	16ff-JJ)	.	.
.	.	32B--JJJ)	.	.	.	.	.	.
=90	=90	=90	=90	=90	=90	=90	=90	=90
4EE--	.	(32G-LLL	.	4.r	.	(8ff-L	.	I
.	.	32B--	.	.	.	.	.	.
.	.	32c-	.	.	.	.	.	.
.	.	32B--JJJ	.	.	.	.	.	.
.	.	32G-LLL	.	.	.	8.gg-J)	.	.
.	.	32B--	.	.	.	.	.	.
.	.	32G-	.	.	.	.	.	.
.	.	32B--JJJ	.	.	.	.	.	.
(16E--LL	.	32G-LLL	.	.	.	.	.	.
.	.	32B--	.	.	.	.	.	.
16D-JJ)	.	32F-	.	.	.	16gg-	.	.
.	.	32B-JJJ)	.	.	.	.	.	.
=91	=91	=91	=91	=91	=91	=91	=91	=91
!LO:TX:b:i:t=cresc.	!	!LO:TX:b:i:t=cresc.	!	!	!	!LO:TX:b:i:t=cresc.	!	!
8.C-L	.	(32E--LLL	.	4.r	.	8.gg-L	.	vi
.	.	32G-	.	.	.	.	.	.
.	.	32c-	.	.	.	.	.	.
.	.	32G-JJJ	.	.	.	.	.	.
.	.	32c-LLL	.	.	.	.	.	.
.	.	32G-	.	.	.	.	.	.
(16C-L	.	32c-	.	.	.	16cc-L	.	.
.	.	32G-JJJ	.	.	.	.	.	.
16E--	.	32c-LLL	.	.	.	(16cc-	.	.
.	.	32G-	.	.	.	.	.	.
16G-JJ)	.	32B-	.	.	.	16dd-JJ)	.	.
.	.	32G-JJJ)	.	.	.	.	.	.
=92	=92	=92	=92	=92	=92	=92	=92	=92
(8c-L	.	(32G-LLL	.	4.r	.	(8dd-L	.	.
.	.	32B-	.	.	.	.	.	.
.	.	32c-	.	.	.	.	.	.
.	.	32B-JJJ)	.	.	.	.	.	.
8C-J	.	(32G-LLL	.	.	.	8ee--J	.	.
.	.	32c-	.	.	.	.	.	.
.	.	32d-	.	.	.	.	.	.
.	.	32c-JJJ)	.	.	.	.	.	.
16CLL	.	(32G-LLL	.	.	.	16ee-LL	.	.
.	.	32B--X	.	.	.	.	.	.
16D-JJ)	.	32F-	.	.	.	16ff-JJ)	.	V6
.	.	32B--JJJ)	.	.	.	.	.	.
=93	=93	=93	=93	=93	=93	=93	=93	=93
(16D-LL	.	(32F-LLL	.	4.r	.	8ff-L	.	V65
.	.	32B--	.	.	.	.	.	.
16E--J	.	32G-	.	.	.	.	.	.
.	.	32B--JJJ)	.	.	.	.	.	.
8F-J)	.	(32D-LLL	.	.	.	16b--L	.	.
.	.	32F-	.	.	.	.	.	.
.	.	.	.	.	.	32qqcc-/LLL	.	.
.	.	.	.	.	.	32qqb--/	.	.
.	.	.	.	.	.	32qqa-/JJJ	.	.
.	.	32B--	.	.	.	(16b--	.	.
.	.	32F-JJJ	.	.	.	.	.	.
*clefC4	*	*	*	*	*	*	*	*
[8a--X	.	32B--LLL	.	.	.	16dd-	.	.
.	.	32F-	.	.	.	.	.	.
.	.	32B--	.	.	.	16cc-JJ)	.	.
.	.	32F-JJJ)	.	.	.	.	.	.
=94	=94	=94	=94	=94	=94	=94	=94	=94
(16a--LL]	.	(32F-LLL	.	8r	.	(16b--LL	.	.
.	.	32B--	.	.	.	.	.	.
16f-	.	32A--X	.	.	.	16dd-	.	.
.	.	32B--JJJ)	.	.	.	.	.	.
16d-	.	(32F-LLL	.	8r	.	16ff-	.	.
.	.	32B--	.	.	.	.	.	.
16e--	.	32E--	.	.	.	16gg-	.	.
.	.	32B--JJJ	.	.	.	.	.	.
16f-	.	32D-LLL	.	16r	.	16aa--X	.	.
.	.	32B--	.	.	.	.	.	.
16B--JJ)	.	32D-	.	(32f-LLL	.	16bb--JJ)	.	.
.	.	32F-JJJ)	.	32a--XJJJ)	.	.	.	.
=95	=95	=95	=95	=95	=95	=95	=95	=95
!LO:TX:b:i:t=espress.	!	!	!	!	!	!	!	!
(8.B--L	.	4.E--	.	(32g-LLL	.	8gg-	.	I
.	.	.	.	32B--	.	.	.	.
.	.	.	.	32c-	.	.	.	.
.	.	.	.	32B--JJJ	.	.	.	.
.	.	.	.	32g-LLL	.	8r	.	.
.	.	.	.	32B--	.	.	.	.
16e--L	.	.	.	32g-	.	.	.	.
.	.	.	.	32B--JJJ	.	.	.	.
16f-	.	.	.	32g-LLL	.	8bb--	.	.
.	.	.	.	32B--	.	.	.	.
16g-JJ)	.	.	.	32g-	.	.	.	.
.	.	.	.	32B--JJJ)	.	.	.	.
=96	=96	=96	=96	=96	=96	=96	=96	=96
(8g-L	.	4D-	.	(32f-LLL	.	(16bb--LL	.	V65
.	.	.	.	32B--	.	.	.	.
.	.	.	.	32c-	.	16ddd-	.	.
.	.	.	.	32B--JJJ	.	.	.	.
8a--X	.	.	.	32f-LLL	.	16fff-	.	.
.	.	.	.	32B--	.	.	.	.
.	.	.	.	32f-	.	16ggg-JJ)	.	.
.	.	.	.	32B--JJJ	.	.	.	.
16f-L	.	(16D-LL	.	32f-LLL	.	8aaa--X	.	.
.	.	.	.	32B--	.	.	.	.
16e--JJ)	.	16E--JJ)	.	32g-	.	.	.	.
.	.	.	.	32B--JJJ)	.	.	.	.
=97	=97	=97	=97	=97	=97	=97	=97	=97
8.d-L	.	4F-	.	(32a--XLLL	.	16r	.	V43
.	.	.	.	32B--	.	.	.	.
.	.	.	.	32c-	.	(16ddd-LL	.	.
.	.	.	.	32B--JJJ	.	.	.	.
.	.	.	.	32a--LLL	.	16eee--	.	.
.	.	.	.	32B--	.	.	.	.
(16d-L	.	.	.	32a--	.	16fff-JJ)	.	.
.	.	.	.	32B--JJJ	.	.	.	.
16e--	.	(16E--LL	.	32g-LLL	.	8r	.	.
.	.	.	.	32B--	.	.	.	.
16f-JJ)	.	16D-JJ)	.	32b--	.	.	.	.
.	.	.	.	32B--JJJ)	.	.	.	.
=98	=98	=98	=98	=98	=98	=98	=98	=98
(8f-L	.	(8D-L	.	(32b--LLL	.	16r	.	V65
.	.	.	.	32B--	.	.	.	.
.	.	.	.	32c-	.	(16fff-LL	.	.
.	.	.	.	32B--JJJ	.	.	.	.
8.g-J)	.	8E--J)	.	32b--LLL	.	16eee--	.	I6
.	.	.	.	32B--	.	.	.	.
.	.	.	.	32b--	.	16fff-	.	.
.	.	.	.	32g-JJJ	.	.	.	.
.	.	(16E--LL	.	32b--LLL	.	16ggg-JJ)	.	.
.	.	.	.	32g-	.	.	.	.
16g-	.	16D-JJ)	.	32b-	.	16r	.	V65/vi
.	.	.	.	32f-JJJ)	.	.	.	.
=99	=99	=99	=99	=99	=99	=99	=99	=99
!LO:TX:b:i:t=cresc.	!	!LO:TX:a:i:t=cresc.	!	!LO:TX:a:i:t=cresc.	!	!	!	!
8.g-L	.	8.E--L	.	(32cc-LLL	.	16r	.	vi6
.	.	.	.	32g-	.	.	.	.
!	!	!	!	!	!	!LO:TX:b:i:t=cresc.	!	!
.	.	.	.	32a--X	.	16ggg-LL	.	.
.	.	.	.	32g-JJJ	.	.	.	.
.	.	.	.	32cc-LLL	.	(16ggg-	.	.
.	.	.	.	32g-	.	.	.	.
16c-L	.	16E--L	.	32cc-	.	16eee--	.	.
.	.	.	.	32g-JJJ	.	.	.	.
(16c-	.	(16E--	.	32cc-LLL	.	16ccc-JJ)	.	.
.	.	.	.	32g-	.	.	.	.
16d-JJ)	.	16G-JJ)	.	32b-	.	16r	.	V/vi
.	.	.	.	32g-JJJ)	.	.	.	.
=100	=100	=100	=100	=100	=100	=100	=100	=100
(8d-L	.	(8G-L	.	(32g-LLL	.	16r	.	I.V/ii
.	.	.	.	32b-	.	.	.	.
.	.	.	.	32cc-	.	(16ggg-LL	.	ii
.	.	.	.	32b-JJJ	.	.	.	.
8e--J)	.	8c-J)	.	32cc-LLL	.	16fff-	.	.
.	.	.	.	32g-	.	.	.	.
.	.	.	.	32cc-	.	16eee--JJ)	.	.
.	.	.	.	32g-JJJ	.	.	.	.
(16e-LL	.	(16cLL	.	32b--XLLL	.	8r	.	viio/iii
.	.	.	.	32g-	.	.	.	.
16f-JJ)	.	16d-JJ)	.	32b--	.	.	.	.
.	.	.	.	32f-JJJ)	.	.	.	.
=101	=101	=101	=101	=101	=101	=101	=101	=101
8f-L	.	(16D-LL	.	(32b--LLL	.	16r	.	I6
.	.	.	.	32f-	.	.	.	.
.	.	16E--JJ)	.	32b--	.	16fff-LL	.	.
.	.	.	.	32g-JJJ	.	.	.	.
16B--L	.	8F-L	.	32d-LLL	.	(16fff-	.	V(64)
.	.	.	.	32B--	.	.	.	.
32qqc-/LLL	.	.	.	.	.	.	.	.
32qqB--/	.	.	.	.	.	.	.	.
32qqA-/JJJ	.	.	.	.	.	.	.	.
(16B--	.	.	.	32d-	.	16ddd-	.	.
.	.	.	.	32B--JJJ	.	.	.	.
16d-	.	8F-J	.	32f-LLL	.	16bb--JJ)	.	V7
.	.	.	.	32B--	.	.	.	.
16c-JJ)	.	.	.	32e--	.	16r	.	.
.	.	.	.	32A-JJJ)	.	.	.	.
=102	=102	=102	=102	=102	=102	=102	=102	=102
8B--	.	8B--L	.	8d-	.	16r	.	I\\
.	.	.	.	.	.	(16ccc-LL	.	.
*clefF4	*	*	*	*	*	*	*	*
(8BB--'L	pp	(8F-' 8B--	pp	(8d--X'L	pp	16bb--JJ)	.	i.i
.	.	.	.	.	.	16r	.	.
8BB--'J)	.	8F-'J) 8B--	.	8d--'J)	.	8r	.	.
=103	=103	=103	=103	=103	=103	=103	=103	=103
(4BB--	.	(4F- 4B--	.	(4d--X	.	(4dd--X	pp	.
16AA-LL	.	16c-XLL (8F-	.	16e--XLL	.	16ee--XLL	.	V65
16BB--JJ)	.	16B--JJ)	.	16d--JJ)	.	16dd--JJ)	.	i
=104	=104	=104	=104	=104	=104	=104	=104	=104
(4FF-	.	(8B--L 4.F-)	.	(8d--XL	.	(8dd--XL	.	V(64)
.	.	8A-	.	8c-	.	8cc-	.	V
8BB--)	.	8B--J)	.	8d--J)	.	8dd--J	.	i
=105	=105	=105	=105	=105	=105	=105	=105	=105
(8GG--XL	.	4B--	.	(8e--	.	8ee--L	.	iv6
8FF-	.	.	.	4d--X	.	8.dd--X	.	iv7
8EE--J	.	(8B--	.	.	.	.	.	.
.	.	.	.	.	.	16gg--XJk)	.	.
=106	=106	=106	=106	=106	=106	=106	=106	=106
4FF-)	.	4A-)	.	4c-)	.	4cc-	.	V
!LO:TX:b:i:t=espress.	!	!LO:TX:b:i:t=espress.	!	!LO:TX:b:i:t=espress.	!	!LO:TX:b:i:t=espress.	!	!
(8F-	.	(8A-	.	(8c- 8f-	.	(8cc-	.	.
=107	=107	=107	=107	=107	=107	=107	=107	=107
4B--)	.	4B--)	.	4d--X) 4f-	.	4dd--X)	.	i
(8B--	.	(8d--X	.	[8f-	.	(8dd--	.	.
=108	=108	=108	=108	=108	=108	=108	=108	=108
8.A-)	.	8.c-)	.	8.f-]	.	8.ff-)	.	V6
16r	.	16r	.	16r	.	16r	.	.
(8G-	.	(8B--	.	(8b--	.	(8ee--	.	VI6/vi
=109	=109	=109	=109	=109	=109	=109	=109	=109
8.F)	.	8.d-)	.	8.a-)	.	8.dd-)	.	V6/vi
16r	.	16r	.	16r	.	16r	.	.
(8G-	f	(8B--	f	(8b--	f	(8ee--	f	VI6/vi
=110	=110	=110	=110	=110	=110	=110	=110	=110
8.F)	.	8.d-)	.	8.a-)	.	8.dd-)	.	V6/vi
16r	.	16r	.	16r	.	16r	.	.
!	!LO:DY:a	!	!	!	!	!	!	!
(16EE--LL	ff ff	(16E--LL	.	(16e--LL	ff	(16ee--LL	ff	@none
16DD-JJ)	.	16D-JJ) 16d-	.	16d-JJ)	.	16dd-JJ)	.	.
=111	=111	=111	=111	=111	=111	=111	=111	=111
(8DD-L 8D-	.	(8D-L 8d-	.	(8d-L	.	(8dd-L	.	.
8CJ)	.	8cJ)	.	8cJ)	.	8ccJ)	.	.
(24E--LL	p	(24e--LL	p	8r	.	8r	.	.
24D-	.	24d-	.	.	.	.	.	.
24E--JJ)	.	24e--JJ)	.	.	.	.	.	.
=112	=112	=112	=112	=112	=112	=112	=112	=112
(8D-L	.	(8d-L	.	4.r	.	4.r	.	.
8CJ)	.	8cJ)	.	.	.	.	.	.
(24E--LL	.	(24e--LL	.	.	.	.	.	.
24D-	.	24d-	.	.	.	.	.	.
24E--JJ	.	24e--JJ	.	.	.	.	.	.
=113	=113	=113	=113	=113	=113	=113	=113	=113
24D-LL	.	24d-LL	.	8r	.	8r	.	.
24C	.	24c	.	.	.	.	.	.
24D-JJ	.	24d-JJ	.	.	.	.	.	.
24C-XLL	.	24c-XLL	.	(24e--LL	p	8r	.	.
24BB-	.	24B-	.	24d-	.	.	.	.
24C-JJ	.	24c-JJ	.	24e--JJ	.	.	.	.
24BB--XLL	.	24B--XLL	.	24d--XLL	.	(24g--XLL	p	.bVI6
24AA-	.	24A-	.	24c-X	.	24f-	.	V6
24BB--JJ)	.	24B--JJ)	.	24d--JJ)	.	24g--JJ)	.	.bVI6
=114	=114	=114	=114	=114	=114	=114	=114	=114
(24AA-LL	<	(24A-LL	<	(24c-LL	<	[4f-	<	V6
24GGX	.	24GX	.	24B-	.	.	.	.
24AA-JJ	.	24A-JJ	.	24c-JJ	.	.	.	.
24GG-LL	[ >	24G-LL	[ >	24B--XLL	[ >	.	.	.
24FF	.	24F	.	24A-	.	.	.	.
24GG-JJ	.	24G-JJ	.	24B--JJ	.	.	.	.
24FF-XLL	.	24F-XLL	.	24A-LL	.	(16f-LL]	[ >	V7
24GG-	.	24G-	.	24B--	.	.	.	.
.	.	.	.	.	.	16e--JJ)	]]	.
24AA-JJ)	]]	24A-JJ)	]]	24c-JJ)	]]	.	.	.
=115	=115	=115	=115	=115	=115	=115	=115	=115
!	!	!	!	!	!	!LO:TX:b:i:t=cantabile	!	!
16BB--LL	p	16B--	.	32d-'LLL	p	(4d-	p	I[I
.	.	.	.	32b--'	.	.	.	.
16BB--JJ	.	16r	.	32dd-'	.	.	.	.
.	.	.	.	32ff-'JJJ	.	.	.	.
!	!	!LO:TX:a:t=pizz.	!	!LO:TX:b:i:t=staccato	!	!	!	!
16r	p	16B--LL	.	32bb--'LLL	.	.	.	.
.	.	.	.	32ff-'	.	.	.	.
16BB--	.	16d-	.	32bb--'	.	.	.	.
.	.	.	.	32ff-'JJJ	.	.	.	.
16r	.	16g-	.	32bb--'LLL	.	16e--LL	.	I(64)
.	.	.	.	32gg-'	.	.	.	.
16BB--	.	16b--JJ	.	32bb--'	.	16d-JJ)	.	I
.	.	.	.	32ff-'JJJ	.	.	.	.
=116	=116	=116	=116	=116	=116	=116	=116	=116
16r	.	16E-LL	.	32bb--'LLL	.	(8d-L	.	#viio/V
.	.	.	.	32gg-'	.	.	.	.
16BB--	.	16e-	.	32bb--'	.	.	.	.
.	.	.	.	32gg-'JJJ	.	.	.	.
16r	.	16e--X	.	32aa-'LLL	.	8c-	.	V2
.	.	.	.	32ff'	.	.	.	.
16BB--	.	16E--X	.	32aa-'	.	.	.	.
.	.	.	.	32ff'JJJ	.	.	.	.
16r	.	16D-	.	32bb--'LLL	.	8d-J)	.	I6]
.	.	.	.	32ff-X'	.	.	.	.
16BB--	.	16d-JJ	.	32bb--'	.	.	.	.
.	.	.	.	32ee-'JJJ	.	.	.	.
=117	=117	=117	=117	=117	=117	=117	=117	=117
16GG-LL	.	16b--LL	.	32bb--LLL	.	(8e--L	.	IV6
.	.	.	.	32gg-	.	.	.	.
16AA-JJ	.	16c-	.	32ccc-	.	.	.	.
.	.	.	.	32ff-JJJ	.	.	.	.
16r	.	16b--	.	32ccc-'LLL	.	8.d-	.	I
.	.	.	.	32ff-	.	.	.	.
16BB--	.	16B--	.	32bb--	.	.	.	.
.	.	.	.	32ff-JJJ	.	.	.	.
16r	.	16d-	.	32bb--LLL	.	.	.	.
.	.	.	.	32ff-	.	.	.	.
16D-	.	16D-JJ	.	32bb--	.	16f-Jk)	.	.
.	.	.	.	32ff-JJJ	.	.	.	.
=118	=118	=118	=118	=118	=118	=118	=118	=118
16r	.	16f-LL	.	32aa-LLL	.	4c-	.	V
.	.	.	.	32ff-	.	.	.	.
16F-	.	16F-	.	32aa-	.	.	.	.
.	.	.	.	32ff-JJJ	.	.	.	.
16r	.	16A-	.	32aa-LLL	.	.	.	.
.	.	.	.	32ff-	.	.	.	.
16FF-	.	16c-	.	32cc-	.	.	.	.
.	.	.	.	32ff-JJJ	.	.	.	.
16r	.	16f-	.	32a-LLL	.	8c-	.	.
.	.	.	.	32cc-	.	.	.	.
16F-	.	16a-JJ	.	32ff-	.	.	.	.
.	.	.	.	32aa-JJJ	.	.	.	.
=119	=119	=119	=119	=119	=119	=119	=119	=119
!LO:TX:a:i:t=cresc.	!	!	!	!LO:TX:b:i:t=cresc.	!	!LO:TX:b:i:t=cresc.	!	!
16r	.	16D-LL	.	32bb--LLL	.	(8d-L	.	I
.	.	.	.	32ff-	.	.	.	.
!LO:TX:b:i:t=cresc.	!	!	!	!	!	!	!	!
16BB--	.	16F-	.	32dd-	.	.	.	.
.	.	.	.	32ff-JJJ	.	.	.	.
16r	.	16B--	.	32dd-LLL	.	8B--	.	.
.	.	.	.	32b--	.	.	.	.
16BB--	.	16d-	.	32f-	.	.	.	.
.	.	.	.	32b--JJJ	.	.	.	.
16r	.	16f-	.	32b--LLL	.	(8d-J)	.	.
.	.	.	.	32f-	.	.	.	.
16BB--	.	16b--JJ	.	32dd-	.	.	.	.
.	.	.	.	32ff-JJJ	.	.	.	.
.	.	.	.	.	.	32qqe--/LLL	.	.
.	.	.	.	.	.	32qqd-/	.	.
.	.	.	.	.	.	32qqc-/	.	.
.	.	.	.	.	.	32qqd-/JJJ	.	.
=120	=120	=120	=120	=120	=120	=120	=120	=120
16r	.	16A-LL	.	32ccc-LLL	.	(8e--L)	.	iio/vi
.	.	.	.	32ff	.	.	.	.
16AA-	.	16c-	.	32ee--	.	.	.	.
.	.	.	.	32ffJJJ	.	.	.	.
16r	.	16e--	.	32ffLLL	.	8c-	.	.
.	.	.	.	32ee--	.	.	.	.
16AA-	.	16f	.	32cc-	.	.	.	.
.	.	.	.	32ee--JJJ	.	.	.	.
16r	.	16a-	.	32ee--LLL	.	8e--J)	.	.
.	.	.	.	32cc-	.	.	.	.
16GG-	.	16b--JJ	.	32ee--	.	.	.	.
.	.	.	.	32cc-JJJ	.	.	.	.
=121	=121	=121	=121	=121	=121	=121	=121	=121
16r	.	16FLL	.	32dd-LLL	.	(16d-KL	.	V6/vi
.	.	.	.	32cc-	.	.	.	.
16FF'LL	.	16a-	.	32aa-	.	[8.dd-J)	.	ii
.	.	.	.	32dd-JJJ	.	.	.	.
16GG-'	>	16d-	>	32bb--LLL	>	.	.	.
.	.	.	.	32dd-	.	.	.	.
16BB--'	.	16G-	.	32bb--	.	.	.	.
.	.	.	.	32aa-JJJ	.	.	.	.
16C-'	.	16c-	.	32bb--LLL	.	(48dd-LLL]	>	V7/V
.	.	.	.	.	.	48cc-	.	.
.	.	.	.	32ff-X	.	.	.	.
.	.	.	.	.	.	48b--JJJ	.	.
16C-'JJ	]]	16c-JJ	]]	32bb--	.	48a-LLL	.	.
.	.	.	.	.	.	48b--	.	.
.	.	.	.	32ee-JJJ	]]	.	.	.
.	.	.	.	.	.	48g-JJJ)	]]	.
=122	=122	=122	=122	=122	=122	=122	=122	=122
16r	.	16e-LL	.	32bb--LLL	.	(8g-L	.	V(9)
.	.	.	.	32ee-	.	.	.	.
16FF-X	.	16cc-	.	32ff-	.	.	.	.
.	.	.	.	32gg-JJJ	.	.	.	.
16r	.	16cc-	.	32aa-LLL	.	8f-J)	.	V\\
.	.	.	.	32ff-	.	.	.	.
16FF-	.	16A-	.	32cc-	.	.	.	.
.	.	.	.	32a-JJJ	.	.	.	.
16r	.	16A-	.	8f-	.	(16c-LL	.	.
16FF-	.	16G-JJ	.	.	.	16B--JJ)	.	.
=123	=123	=123	=123	=123	=123	=123	=123	=123
16r	.	16F-LL	.	8.r	.	(32A-LLL	.	V2
.	.	.	.	.	.	32a-	.	.
16EE--	.	16cc-	.	.	.	32f-	.	.
.	.	.	.	.	.	32a-JJJ	.	.
16r	.	16dd-	.	.	.	32B--LLL	.	I6
.	.	.	.	.	.	32b--	.	.
16DD-	.	16B--	.	(16ff-LL	.	32f-	.	.
.	.	.	.	.	.	32b--JJJ	.	.
16r	.	16ee--	.	16aa-	.	32c-LLL	.	V64
.	.	.	.	.	.	32cc-	.	.
16C-	.	16A-JJ	.	16ccc-JJ	.	32f-	.	.
.	.	.	.	.	.	32cc-JJJ)	.	.
=124	=124	=124	=124	=124	=124	=124	=124	=124
16r	.	16B--LL	.	16fff-LL	.	(32d-LLL	.	I
.	.	.	.	.	.	32dd-	.	.
16BB--	.	16dd-	.	16ddd-	.	32f-	.	.
.	.	.	.	.	.	32dd-JJJ	.	.
16r	.	16B--	.	16ccc-	.	32d-LLL	.	.
.	.	.	.	.	.	32f-	.	.
16BB--'LL	.	16d-	.	[16bb--JJ)	.	32b--	.	.
.	.	.	.	.	.	32dd-JJJ	.	.
16FF-'	.	16a--X	.	(8bb--]	.	32b--LLL	.	V43/IV
.	.	.	.	.	.	32dd-	.	.
16GG-'JJ	.	16g-JJ	.	.	.	32ff-	.	.
.	.	.	.	.	.	32ee--JJJ)	.	.
=125	=125	=125	=125	=125	=125	=125	=125	=125
16AA--X'LL	.	16f-LL	.	8.bb--)	.	(32dd-LLL	.	V2/IV
.	.	.	.	.	.	32b--	.	.
16AA--'JJ	.	16F-	.	.	.	32dd-	.	.
.	.	.	.	.	.	32f-JJJ	.	.
16r	.	16G-	.	.	.	32ee--LLL	.	.
.	.	.	.	.	.	32b--	.	.
16GG-	.	16b--	.	(16B--LL	.	32ee--	.	.
.	.	.	.	.	.	32g-JJJ	.	.
16r	.	16F-	.	16d-	.	32ff-LLL	.	V43/IV
.	.	.	.	.	.	32dd-	.	.
16FF-	.	16a--XJJ	.	16b--JJ)	.	32ff-	.	.
.	.	.	.	.	.	32a--XJJJ)	.	.
=126	=126	=126	=126	=126	=126	=126	=126	=126
!LO:TX:a:i:t=cresc.	!	!	!	!LO:TX:a:i:t=cresc.	!	!	!	!
16r	.	16E--LL	.	(16b--LL	.	(32gg-LLL	<	IV
.	.	.	.	.	.	32B--	.	.
16EE--	.	16g-	.	16g-	.	32e--	.	.
.	.	.	.	.	.	32B--JJJ	.	.
16r	.	16b--	.	16f-	.	32g-LLL	.	.
.	.	.	.	.	.	32b--	.	.
(16E--	.	16ee--JJ	.	16e--JJ	.	32ee--	.	.
.	.	.	.	.	.	32gg-JJJ	.	.
16D-LL	sf sf	16f-LL	.	16f-LL	sf	32aa--XLLL	[ sf	V65/IV
.	.	.	.	.	.	32ff-	.	.
16E--JJ)	.	16B--JJ	.	[16g-JJ)	.	32gg-	.	IV
.	.	.	.	.	.	32ee--JJJ)	.	.
=127	=127	=127	=127	=127	=127	=127	=127	=127
16r	.	16B-LL	.	16g-LL]	.	(32gg-LLL	.	IV+
.	.	.	.	.	.	32ee--	.	.
16BB-	.	16g-	.	(16d-	.	32g-	.	V6/ii
.	.	.	.	.	.	32gg-JJJ	.	.
16r	.	16dd-	.	16g-	.	32ff-LLL	.	.
.	.	.	.	.	.	32dd-	.	.
(16BB-	.	16gg-JJ	.	16dd-JJ)	.	32g-	.	.
.	.	.	.	.	.	32ff-JJJ)	.	.
16GG-LL	sf sf	16e--LL	.	[8g-	sf	(32gg-LLL	sf	.
.	.	.	.	.	.	32ee--	.	.
16BB-JJ)	.	16d-JJ	.	.	.	32ff-	.	.
.	.	.	.	.	.	32dd-JJJ)	.	.
=128	=128	=128	=128	=128	=128	=128	=128	=128
16r	.	16c-LL	.	16g-LL]	.	(32ff-LLL	.	ii
.	.	.	.	.	.	32dd-	.	.
16C-	.	16e--	.	(16g-	.	32g-	.	.
.	.	.	.	.	.	32ff-JJJ	.	.
16r	.	16g-	.	16cc-	.	32ee--LLL	.	.
.	.	.	.	.	.	32cc-	.	.
16C-LL	.	16cc-JJ	.	16ee--JJ)	.	32g-	.	.
.	.	.	.	.	.	32ee--JJJ)	.	.
(16C-	.	16E--LL	.	[8g-	.	(32aa--XLLL	.	.
.	.	.	.	.	.	32gg-)	.	.
16D-JJ)	.	16F-JJ	.	.	.	(32gg-	.	.
.	.	.	.	.	.	32ff-JJJ)	.	.
=129	=129	=129	=129	=129	=129	=129	=129	=129
!LO:TX:a:i:t=cresc.	!	!	!	!LO:TX:a:i:t=cresc.	!	!LO:TX:a:i:t=cresc.	!	!
16r	.	16E--LL	.	16g-LL]	.	(32ff-LLL	.	ii6
.	.	.	.	.	.	32ee--)	.	.
!LO:TX:b:i:t=cresc.	!	!	!	!	!	!	!	!
16E--	.	16G-	.	(16cc-JJ	.	(32ee--	.	.
.	.	.	.	.	.	32dd-JJJ)	.	.
16r	.	16c-	.	16gg-LL	.	(32dd-LLL	.	.
.	.	.	.	.	.	32cc-)	.	.
16EE--	.	16e--JJ	.	[16ccc-JJ)	.	(32cc-	.	.
.	.	.	.	.	.	32gg-JJJ)	.	.
16r	.	16E--LL 16A-	.	8ccc-]	.	(32gg-LLL	.	V2
.	.	.	.	.	.	32ff-)	.	.
16EE--	.	16f-JJ	.	.	.	(32ff-	.	.
.	.	.	.	.	.	32a-JJJ)	.	.
=130	=130	=130	=130	=130	=130	=130	=130	=130
16DD-'LL	.	16f-LL	.	16ddd-	.	(32cc-LLL	.	I6
.	.	.	.	.	.	32b--)	.	.
16GG-'JJ	.	16G-JJ	.	(16B--LL	.	(32ff-	.	IV6
.	.	.	.	.	.	32ee--JJJ)	.	.
!	!	!	!LO:DY:a	!	!	!	!	!
16r	f	16F-LL 16B--	f	16d-	.	(32dd-LLL	f	V(64)
.	.	.	.	.	.	32ff-)	>	.
16FF-	f >	16d-	>	16dd-	>	(32bb--	.	.
.	.	.	.	.	.	32ddd-JJJ)	.	.
16r	.	16F-JJ 16e--	.	16a-	.	(32bb-LLL	.	V7
.	.	.	.	.	.	32ccc-)	.	.
16FF-	]]	16r	]	16ff-JJ)	]	(32fff-	.	.
.	.	.	.	.	.	32aa-JJJ)	]]	.
=131	=131	=131	=131	=131	=131	=131	=131	=131
!	!	!LO:TX:a:t=arco	!	!	!	!	!	!
16r	.	(32D-LLL	p	(32d-LLL	p	(8bb--XL	p	I[I
.	.	32F-)	.	32f-)	.	.	.	.
16BB--	p	(32F-	.	(32f-	.	.	.	.
.	.	32B--JJJ)	.	32b--JJJ)	.	.	.	.
16r	.	(32E--LLL	.	(32e--LLL	.	8.gg-	.	IV
.	.	32G-)	.	32g-)	.	.	.	.
16BB--	.	(32G-	.	(32g-	.	.	.	.
.	.	32B--JJJ)	.	32b--JJJ)	.	.	.	.
16r	.	(32E--LLL	.	(32e--LLL	.	.	.	.
.	.	32G-)	.	32g-)	.	.	.	.
16BB--	.	(32G-	.	(32g-	.	16ccc-Jk)	.	ii
.	.	32c-JJJ)	.	32cc-JJJ)	.	.	.	.
=132	=132	=132	=132	=132	=132	=132	=132	=132
16r	.	(32E--LLL	.	(32e--LLL	.	(8bb--L	.	V7(4)
.	.	32F-)	.	32f-)	.	.	.	.
16BB--	.	(32F-	.	(32f-	.	.	.	.
.	.	32c-JJJ)	.	32cc-JJJ)	.	.	.	.
16r	.	(32F-LLL	.	(32f-LLL	.	8aa-	.	V7
.	.	32A-)	.	32a-)	.	.	.	.
16BB--	.	(32A-	.	(32a-	.	.	.	.
.	.	32c-JJJ)	.	32cc-JJJ)	.	.	.	.
16r	.	(32A-LLL	.	(32a-LLL	.	16gg-L	.	.
.	.	32c-)	.	32cc-)	.	.	.	.
16BB--	.	(32c-	.	(32cc-	.	16ff-JJ)	.	.
.	.	32e--JJJ)	.	32ee--JJJ)	.	.	.	.
=133	=133	=133	=133	=133	=133	=133	=133	=133
16r	.	(8B--L	.	(8b--L	.	(32dd-LLL	.	I
.	.	.	.	.	.	32ff-)	.	.
16BB--	.	.	.	.	.	(32ff-	.	.
.	.	.	.	.	.	32bb--JJJ)	.	.
16r	.	8.G-	.	8.g-	.	(32ee--LLL	.	ii64
.	.	.	.	.	.	32gg-)	.	.
16BB--	.	.	.	.	.	(32gg-	.	.
.	.	.	.	.	.	32ccc-JJJ)	.	.
16r	.	.	.	.	.	(32gg-LLL	.	.
.	.	.	.	.	.	32ccc-)	.	.
16BB--	.	16c-Jk)	.	16cc-Jk)	.	(32ccc-	.	.
.	.	.	.	.	.	32eee--JJJ)	.	.
=134	=134	=134	=134	=134	=134	=134	=134	=134
16r	.	(8B--L	.	(8b--L	.	(32gg-LLL	.	.
.	.	.	.	.	.	32ccc-)	.	.
16BB--	.	.	.	.	.	(32ccc-	.	.
.	.	.	.	.	.	32eee--JJJ)	.	.
16r	.	8A-	.	8a-	.	(32ff-LLL	.	V65
.	.	.	.	.	.	32ccc-)	.	.
16BB--	.	.	.	.	.	(32ccc-	.	.
.	.	.	.	.	.	32eee--JJJ)	.	.
16r	.	16G-L	.	16g-L	.	(32ff-LLL	.	.
.	.	.	.	.	.	32ccc-)	.	.
16BB--	.	16F-JJ)	.	16f-JJ)	.	(32ccc-	.	.
.	.	.	.	.	.	32eee--JJJ)	.	.
=135	=135	=135	=135	=135	=135	=135	=135	=135
!	!	!LO:TX:b:i:t=cresc.	!	!LO:TX:b:i:t=cresc.	!	!LO:TX:b:i:t=cresc.	!	!
16r	.	(8F-L	.	(8f-L	.	(32eee--LLL	.	I]
.	.	.	.	.	.	32ddd-)	.	.
!LO:TX:b:i:t=cresc.	!	!	!	!	!	!	!	!
16BB--	.	.	.	.	.	32ccc-'	.	.
.	.	.	.	.	.	32bb--'JJJ	.	.
16r	.	8G-	.	8g-	.	32aa-'LLL	.	IV
.	.	.	.	.	.	32gg-'	.	.
16EE--	.	.	.	.	.	32ff-'	.	.
.	.	.	.	.	.	32ee--'JJJ	.	.
16r	.	8A-J)	.	8a-J)	.	32dd-'LLL	.	V
.	.	.	.	.	.	32cc-'	.	.
16FF-	.	.	.	.	.	32b--'	.	.
.	.	.	.	.	.	32a-'JJJ	.	.
=136	=136	=136	=136	=136	=136	=136	=136	=136
16r	.	4.A- 4.c-	sf > ]]	4.a- 4.cc-	sf > ]]	(32g-LLL	sf	V7
.	.	.	.	.	.	32f-	.	.
16FF-	sf	.	.	.	.	32e-	.	.
.	.	.	.	.	.	32f-JJJ	.	.
16r	>	.	.	.	.	32a-LLL	>	.
.	.	.	.	.	.	32cc-	.	.
16FF-	.	.	.	.	.	32ee--X	.	.
.	.	.	.	.	.	32ff-JJJ	.	.
16r	.	.	.	.	.	32aa-LLL	.	.
.	.	.	.	.	.	32ccc-	.	.
16FF-	]]	.	.	.	.	32eee--)	.	.
.	.	.	.	.	.	32aa-'JJJ	]]	.
=137	=137	=137	=137	=137	=137	=137	=137	=137
8FF-	p	8A- 8c-	p	8a- 8cc-	p	8eee--	p	.
8r	.	8r	.	8r	.	8r	.	.
8r	.	(32A-LLL	.	(32a-LLL	.	8r	.	.
.	.	32c-	.	32cc-	.	.	.	.
.	.	32e--)	.	32ee--)	.	.	.	.
.	.	32A-'JJJ	.	32a-'JJJ	.	.	.	.
=138	=138	=138	=138	=138	=138	=138	=138	=138
8r	.	8e--	.	8ee--	.	4.r	.	.
8r	.	8r	.	8r	.	.	.	.
(32AA-LLL	.	8r	.	8r	.	.	.	.
32C-	.	.	.	.	.	.	.	.
32E--)	.	.	.	.	.	.	.	.
32AA-'JJJ	.	.	.	.	.	.	.	.
=139	=139	=139	=139	=139	=139	=139	=139	=139
8BB--	.	8d--X	.	8f-	.	(8ff-L	.	i.i
[4B--	.	[4d--	.	[4f-	.	8dd--X)	.	.
.	.	.	.	.	.	(16ff-'L	.	.
.	.	.	.	.	.	16dd--'JJ)	.	.
=140	=140	=140	=140	=140	=140	=140	=140	=140
8B--]	.	8d--]	.	8f-]	.	(8cc-L	.	i(9)
[4B--	.	[4d--X	.	[4f-	.	8b--J)	.	i
.	.	.	.	.	.	(16b--'LL	.	.
.	.	.	.	.	.	16dd--X'JJ)	.	.
=141	=141	=141	=141	=141	=141	=141	=141	=141
!	!	!	!	!	!	!LO:TX:a:i:t=cresc.	!	!
8B--]	.	8d--]	.	8f-]	.	(8ff-L	.	.
!LO:TX:b:i:t=cresc.	!	!LO:TX:a:i:t=cresc.	!	!LO:TX:a:i:t=cresc.	!	!	!	!
[4B--	.	[4d--X	.	[4f-	.	8bb--)	.	.
.	.	.	.	.	.	(16ddd--X'L	.	.
.	.	.	.	.	.	16bb--'JJ)	.	.
=142	=142	=142	=142	=142	=142	=142	=142	=142
.	.	.	.	.	.	16qqaa-/LL	.	.
.	.	.	.	.	.	16qqbb--/	.	.
!LO:TX:b:i:t=dim. p	!	!LO:TX:b:i:t=dim. p	!	!LO:TX:b:i:t=dim. p	!	!LO:TX:a:i:t=dim.	!	!
.	.	.	.	.	.	16qqccc-/JJ	.	.
8B--L]	.	(8d--L]	.	8f-L]	.	(8bb--L	.	.
8F-J	.	8c-J)	.	8f-J	.	8aa-J)	p	V
(8FF-	.	8r	.	8r	.	8r	.	.
=143	=143	=143	=143	=143	=143	=143	=143	=143
8BB--L	.	4.r	.	8r	.	4.r	.	ii
8.GG-	.	.	.	(8B--L	.	.	.	.
.	.	.	.	8e--J	.	.	.	.
16C-Jk)	.	.	.	.	.	.	.	.
=144	=144	=144	=144	=144	=144	=144	=144	=144
(8BB--L	.	8r	.	8c-L	.	8r	.	V6(4)
16AA-L	.	(8F-L	.	8f-	.	8r	.	V6
16GG-	.	.	.	.	.	.	.	.
16FF-	.	8c-J)	.	8A-J)	.	(8f-	.	V
16EE--JJ)	.	.	.	.	.	.	.	.
=145	=145	=145	=145	=145	=145	=145	=145	=145
!LO:TX:a:i:t=cresc.	!	!	!	!	!	!	!	!
!LO:TX:b:i:t=cresc.	!	!LO:TX:a:i:t=cresc.	!	!	!	!LO:TX:b:i:t=cresc.	!	!
(8DD-L	.	(8F-	.	(8.B--L	.	8b--L)	.	I6
8.EE--	.	[4G-)	.	.	.	(8.g-	.	ii6
.	.	.	.	16B-K	.	.	.	.
.	.	.	.	[8c-J)	.	.	.	.
[16EE-Jk)	.	.	.	.	.	32dd-LL	.	V6/V
.	.	.	.	.	.	32cc-JJJ	.	.
=146	=146	=146	=146	=146	=146	=146	=146	=146
16EE-LL]	.	16G-LL]	.	8c-L]	.	8b--L	.	V7(4)
(16EE-	.	(16G-	.	.	.	.	.	.
16FF-	.	16A-)	.	(16c-L	.	8a-	.	V7
16FF	.	(16A-	.	16e--)	.	.	.	.
16GG-	.	16B--	.	16e--'	.	16g-L	.	.
16AA-JJ)	.	16c-JJ)	.	16e--'JJ	.	16f-JJ)	.	.
=147	=147	=147	=147	=147	=147	=147	=147	=147
.	.	.	.	.	.	8qf-/	p	I\\
(16BB--LL	p	8B--	p	8d-	p	(8b--	.	.
16D-JJ)	.	.	.	.	.	.	.	.
8r	.	(16E--LL	.	8r	.	4g-)	.	IV
.	.	16G-JJ)	.	.	.	.	.	.
8r	.	8r	.	(16B--XLL	.	.	.	.
.	.	.	.	16e--JJ)	.	.	.	.
=148	=148	=148	=148	=148	=148	=148	=148	=148
!LO:TX:b:i:t=cresc.	!	!	!	!	!	!LO:TX:a:i:t=cresc.	!	!
.	.	.	.	.	.	8qg-/	.	ii
(16C-LL	.	8r	.	8r	.	(8ee--	.	.
16E--JJ)	.	.	.	.	.	.	.	.
!LO:TX:a:i:t=cresc.	!	!	!	!	!	!	!	!
8r	.	(16F-LL	.	8r	.	4a-)	.	V
.	.	16A-JJ)	.	.	.	.	.	.
!	!	!LO:TX:a:i:t=cresc.	!	!	!	!	!	!
8r	.	8r	.	(16c-LL	.	.	.	.
.	.	.	.	16f-JJ)	.	.	.	.
=149	=149	=149	=149	=149	=149	=149	=149	=149
.	.	.	.	.	.	8qa-/	.	iii
(16D-LL	.	8r	.	8r	.	(8ff-L	.	.
16F-JJ)	.	.	.	.	.	.	.	.
8r	.	(16G-LL	.	(8d-L	.	8b--	.	vi
.	.	16B--JJ)	.	.	.	.	.	.
(16C-LL	.	(16e--LL	.	16g-L	.	16ff-L	.	ii
16E--JJ)	.	16g-JJ)	.	16cc-JJ)	.	16ee--JJ)	.	ii6
=150	=150	=150	=150	=150	=150	=150	=150	=150
(16F-LL	p	8r	.	8r	.	8r	.	V(64)
16B--JJ)	.	.	.	.	.	.	.	.
.	.	.	.	.	.	32qqf-/LLL	p	.
.	.	.	.	.	.	32qqb--/JJJ	.	.
8r	.	(16d-LL	p	8r	.	8dd-	.	.
.	.	16f-JJ)	.	.	.	.	.	.
8r	.	8r	p	(16b--LL	.	8r	.	.
.	.	.	.	16dd-JJ)	.	.	.	.
=151	=151	=151	=151	=151	=151	=151	=151	=151
(16f-LL	.	8r	.	8r	.	8r	.	V7
16a-JJ)	.	.	.	.	.	.	.	.
.	.	.	.	.	.	32qqff-/LLL	.	.
.	.	.	.	.	.	32qqccc-/JJJ	.	.
8r	.	(16cc-LL	.	8r	.	8eee--	.	.
.	.	16ff-JJ)	.	.	.	.	.	.
8r	.	8r	.	(16aa-LL	.	8r	.	.
.	.	.	.	16ccc-JJ)	.	.	.	.
=152	=152	=152	=152	=152	=152	=152	=152	=152
4.r	.	8r	.	(16aa-LL	.	(16eee--LL	.	viio2
.	.	.	.	16ccc-JJ)	.	16eee--JJ)	.	.
.	.	4gg--X	.	8r	.	8r	.	.
.	.	.	.	8r	.	8r	.	.
=153	=153	=153	=153	=153	=153	=153	=153	=153
4.r	.	8r	.	(16aa-LL	.	(16eee--LL	.	.
.	.	.	.	16ccc-JJ)	.	16eee--JJ)	.	.
.	.	[4gg--X	.	8r	.	8r	.	.
.	.	.	.	8r	.	8r	.	.
=154	=154	=154	=154	=154	=154	=154	=154	=154
8r	.	(4gg--]	.	(8aa-	.	4.eee--	.	V
8r	.	.	.	4ccc-)	.	.	.	.
*clefC4	*	*	*	*	*	*	*	*
(8a-	.	8ff-)	.	.	.	.	.	.
=155	=155	=155	=155	=155	=155	=155	=155	=155
4b--	.	4ff-	.	4bb--	.	4ddd-	.	I64
16cc-LL	.	8r	.	8r	.	8r	.	.
16b--JJ	.	.	.	.	.	.	.	.
=156	=156	=156	=156	=156	=156	=156	=156	=156
8a-)	.	4.cc-	.	(4g--X	.	4.ee--	.	V65
8r	.	.	.	.	.	.	.	.
*clefF4	*	*	*	*	*	*	*	*
(8A-	.	.	.	8f-)	.	.	.	.
=157	=157	=157	=157	=157	=157	=157	=157	=157
4B--	.	4b--	.	4f-	.	4dd-	.	I
16c-LL	.	8r	.	8r	.	8r	.	.
16B--JJ	.	.	.	.	.	.	.	.
=158	=158	=158	=158	=158	=158	=158	=158	=158
8A-)	.	(4G--X	.	4.c-	.	4.e--	.	V65
(16AA-LL	.	.	.	.	.	.	.	.
16FF-	.	.	.	.	.	.	.	.
16GG-	.	8F-)	.	.	.	.	.	.
16AA-JJ)	.	.	.	.	.	.	.	.
=159	=159	=159	=159	=159	=159	=159	=159	=159
(4BB--	.	4.F-	> < [[	4.B--	> < [[	4.d-	> < [[	I
16C-LL	.	.	.	.	.	.	.	.
16BB--JJ)	.	.	.	.	.	.	.	.
=160	=160	=160	=160	=160	=160	=160	=160	=160
8BB--L	.	8F-L	[	8B--L	[	8d-L	[	.
8BB--J	.	8F-J	.	8B--J	.	8d-J	.	.
8r	.	8r	.	8r	.	8r	.	.
=161	=161	=161	=161	=161	=161	=161	=161	=161
8BB--L	.	8F-L	.	8B--L	.	8d--XL	.	i
8BB--J	.	8F-J	.	8B--J	.	8d--J	.	.
8r	.	8r	.	8r	.	8r	.	.
=162	=162	=162	=162	=162	=162	=162	=162	=162
!LO:TX:a:i:t=cresc.	!	!	!	!	!	!	!	!
!LO:TX:b:i:t=cresc.	!	!LO:TX:a:i:t=cresc.	!	!	!	!LO:TX:b:i:t=cresc.	!	!
4.GG-	.	4.E-	.	4.B--	.	4.c-	.	V43/V
=163	=163	=163	=163	=163	=163	=163	=163	=163
!	!	!	!LO:DY:a	!	!	!	!	!
4.FF-	sf > ]]	4.E--X	sf sf > ]]	4.A-	>]	4.f-	sf > ]]	V7
=164	=164	=164	=164	=164	=164	=164	=164	=164
8BB--	p p	8D-	p	8B--	.	8f-	p	I
!LO:TX:b:i:t=espressivo morendo	!	!	!	!	!	!	!	!
!LO:TX:a:i:t=espressivo morendo	!	!	!	!	!	!LO:TX:b:i:t=espressivo morendo	!	!
8r	.	8r	.	8r	.	8r	.	.
!	!	!LO:TX:a:i:t=espressivo morendo	!	!	!	!	!	!
8FF-	.	8E--	.	8A-	.	8f-	.	V7
=165	=165	=165	=165	=165	=165	=165	=165	=165
8BB--	.	8D-	.	8B--	.	8f-	.	I
8r	.	8r	.	8r	.	8r	.	.
8FF-	.	8E--	.	8A-	.	8f-	.	V7
=166	=166	=166	=166	=166	=166	=166	=166	=166
8r	.	8r	.	8r	.	8r	.	.
8BB--	.	8D-	.	8B--	.	8f-	.	I
8r	.	8r	.	8r	.	8r	.	.
=167	=167	=167	=167	=167	=167	=167	=167	=167
8r	.	8r	.	8r	.	8r	.	.
8BB--	.	8F-	.	8d-	.	8b--	.	.
8r	.	8r	.	8r	.	8r	.	.
=168	=168	=168	=168	=168	=168	=168	=168	=168
8r	.	8r	.	8r	.	8r	.	.
8BB--L	.	8F-L	.	8d-L	.	8b--L	.	.
8BB--J	.	8F-J	.	8d-J	.	8b--J	.	.
=169	=169	=169	=169	=169	=169	=169	=169	=169
8BB--	.	8F-	.	8d-	.	8b--	.	I\\
8r	.	8r	.	8r	.	8r	.	.
8r	.	8r	.	8r	.	8r	.	.
=:|!	=:|!	=:|!	=:|!	=:|!	=:|!	=:|!	=:|!	=:|!
*-	*-	*-	*-	*-	*-	*-	*-	*-
!!!system-decoration: [(s1,s2,s3,s4)]
